icon/medium.svg

<?xml version="1.0" encoding="UTF-8"?>
<svg xmlns="http://www.w3.org/2000/svg" xmlns:xlink="http://www.w3.org/1999/xlink" width="30pt" height="30pt" viewBox="0 0 30 30" version="1.1">
<g id="surface14940189">
<path style=" stroke:none;fill-rule:nonzero;fill:rgb(33.333333%,33.333333%,33.333333%);fill-opacity:1;" d="M 25.3125 22.5 L 17.8125 22.5 C 17.625 22.5 17.453125 22.386719 17.378906 22.210938 C 17.308594 22.035156 17.347656 21.832031 17.480469 21.699219 L 19.21875 19.960938 L 19.21875 12.746094 L 15.433594 22.207031 C 15.363281 22.382812 15.191406 22.5 15 22.5 L 12.65625 22.5 C 12.457031 22.5 12.28125 22.375 12.214844 22.191406 L 8.90625 13 L 8.90625 19.078125 L 10.703125 21.769531 C 10.796875 21.914062 10.808594 22.101562 10.726562 22.253906 C 10.644531 22.40625 10.484375 22.5 10.3125 22.5 L 4.6875 22.5 C 4.515625 22.5 4.355469 22.40625 4.273438 22.253906 C 4.191406 22.101562 4.203125 21.914062 4.296875 21.773438 L 6.09375 19.078125 L 6.09375 8.164062 L 4.21875 6.289062 C 3.949219 6.019531 3.871094 5.617188 4.015625 5.265625 C 4.160156 4.914062 4.5 4.6875 4.882812 4.6875 L 10.3125 4.6875 C 10.496094 4.6875 10.660156 4.792969 10.738281 4.960938 L 15.21875 14.664062 L 19.253906 4.976562 C 19.328125 4.800781 19.5 4.6875 19.6875 4.6875 L 24.957031 4.6875 C 25.355469 4.6875 25.699219 4.929688 25.835938 5.304688 C 25.972656 5.679688 25.863281 6.089844 25.554688 6.34375 L 23.90625 7.71875 L 23.90625 19.960938 L 25.644531 21.699219 C 25.777344 21.832031 25.816406 22.035156 25.746094 22.210938 C 25.671875 22.386719 25.5 22.5 25.3125 22.5 Z M 18.945312 21.5625 L 24.179688 21.5625 L 23.105469 20.488281 C 23.019531 20.398438 22.96875 20.28125 22.96875 20.15625 L 22.96875 7.5 C 22.96875 7.359375 23.03125 7.230469 23.136719 7.140625 L 24.953125 5.625 L 20 5.625 L 15.671875 16.011719 C 15.601562 16.183594 15.433594 16.296875 15.25 16.300781 C 15.050781 16.300781 14.890625 16.195312 14.8125 16.027344 L 10.011719 5.625 L 4.882812 5.625 L 6.894531 7.636719 C 6.980469 7.726562 7.03125 7.84375 7.03125 7.96875 L 7.03125 19.21875 C 7.03125 19.3125 7.003906 19.402344 6.953125 19.480469 L 5.5625 21.5625 L 9.4375 21.5625 L 8.046875 19.480469 C 7.996094 19.402344 7.96875 19.3125 7.96875 19.21875 L 7.96875 10.3125 C 7.96875 10.085938 8.132812 9.890625 8.355469 9.851562 C 8.578125 9.8125 8.800781 9.9375 8.878906 10.152344 L 12.984375 21.5625 L 14.683594 21.5625 L 19.253906 10.136719 C 19.335938 9.929688 19.558594 9.808594 19.777344 9.851562 C 19.996094 9.894531 20.15625 10.089844 20.15625 10.3125 L 20.15625 20.15625 C 20.15625 20.28125 20.105469 20.398438 20.019531 20.488281 Z M 4.652344 25.78125 C 4.394531 25.78125 4.183594 25.570312 4.183594 25.3125 L 4.183594 24.375 C 4.183594 24.117188 4.394531 23.90625 4.652344 23.90625 C 4.910156 23.90625 5.121094 24.117188 5.121094 24.375 L 5.121094 25.3125 C 5.121094 25.570312 4.910156 25.78125 4.652344 25.78125 Z M 6.953125 25.78125 C 6.691406 25.78125 6.484375 25.570312 6.484375 25.3125 L 6.484375 24.375 C 6.484375 24.117188 6.691406 23.90625 6.953125 23.90625 C 7.210938 23.90625 7.421875 24.117188 7.421875 24.375 L 7.421875 25.3125 C 7.421875 25.570312 7.210938 25.78125 6.953125 25.78125 Z M 9.25 25.78125 C 8.992188 25.78125 8.78125 25.570312 8.78125 25.3125 L 8.78125 24.375 C 8.78125 24.117188 8.992188 23.90625 9.25 23.90625 C 9.511719 23.90625 9.71875 24.117188 9.71875 24.375 L 9.71875 25.3125 C 9.71875 25.570312 9.511719 25.78125 9.25 25.78125 Z M 11.550781 25.78125 C 11.292969 25.78125 11.082031 25.570312 11.082031 25.3125 L 11.082031 24.375 C 11.082031 24.117188 11.292969 23.90625 11.550781 23.90625 C 11.808594 23.90625 12.019531 24.117188 12.019531 24.375 L 12.019531 25.3125 C 12.019531 25.570312 11.808594 25.78125 11.550781 25.78125 Z M 13.851562 25.78125 C 13.589844 25.78125 13.382812 25.570312 13.382812 25.3125 L 13.382812 24.375 C 13.382812 24.117188 13.589844 23.90625 13.851562 23.90625 C 14.109375 23.90625 14.320312 24.117188 14.320312 24.375 L 14.320312 25.3125 C 14.320312 25.570312 14.109375 25.78125 13.851562 25.78125 Z M 16.148438 25.78125 C 15.890625 25.78125 15.679688 25.570312 15.679688 25.3125 L 15.679688 24.375 C 15.679688 24.117188 15.890625 23.90625 16.148438 23.90625 C 16.410156 23.90625 16.617188 24.117188 16.617188 24.375 L 16.617188 25.3125 C 16.617188 25.570312 16.410156 25.78125 16.148438 25.78125 Z M 18.449219 25.78125 C 18.191406 25.78125 17.980469 25.570312 17.980469 25.3125 L 17.980469 24.375 C 17.980469 24.117188 18.191406 23.90625 18.449219 23.90625 C 18.707031 23.90625 18.917969 24.117188 18.917969 24.375 L 18.917969 25.3125 C 18.917969 25.570312 18.707031 25.78125 18.449219 25.78125 Z M 20.75 25.78125 C 20.488281 25.78125 20.28125 25.570312 20.28125 25.3125 L 20.28125 24.375 C 20.28125 24.117188 20.488281 23.90625 20.75 23.90625 C 21.007812 23.90625 21.21875 24.117188 21.21875 24.375 L 21.21875 25.3125 C 21.21875 25.570312 21.007812 25.78125 20.75 25.78125 Z M 23.046875 25.78125 C 22.789062 25.78125 22.578125 25.570312 22.578125 25.3125 L 22.578125 24.375 C 22.578125 24.117188 22.789062 23.90625 23.046875 23.90625 C 23.308594 23.90625 23.515625 24.117188 23.515625 24.375 L 23.515625 25.3125 C 23.515625 25.570312 23.308594 25.78125 23.046875 25.78125 Z M 25.347656 25.78125 C 25.089844 25.78125 24.878906 25.570312 24.878906 25.3125 L 24.878906 24.375 C 24.878906 24.117188 25.089844 23.90625 25.347656 23.90625 C 25.605469 23.90625 25.816406 24.117188 25.816406 24.375 L 25.816406 25.3125 C 25.816406 25.570312 25.605469 25.78125 25.347656 25.78125 Z M 25.347656 25.78125 "/>
</g>
</svg>

<?xml version="1.0" encoding="utf-8"?>
<!-- Generator: Adobe Illustrator 25.0.0, SVG Export Plug-In . SVG Version: 6.00 Build 0)  -->
<svg version="1.1" id="Layer_1" xmlns="http://www.w3.org/2000/svg" xmlns:xlink="http://www.w3.org/1999/xlink" x="0px" y="0px"
	 viewBox="0 0 30 30" style="enable-background:new 0 0 30 30;" xml:space="preserve">
<style type="text/css">
	.st0{fill:#858585;}
</style>
<g id="surface14940189">
	<path class="st0" d="M25.3,22.5h-7.5c-0.2,0-0.4-0.1-0.4-0.3c-0.1-0.2,0-0.4,0.1-0.5l1.7-1.7v-7.2l-3.8,9.5
		c-0.1,0.2-0.2,0.3-0.4,0.3h-2.3c-0.2,0-0.4-0.1-0.4-0.3L8.9,13v6.1l1.8,2.7c0.1,0.1,0.1,0.3,0,0.5s-0.2,0.2-0.4,0.2H4.7
		c-0.2,0-0.3-0.1-0.4-0.2c-0.1-0.2-0.1-0.3,0-0.5l1.8-2.7V8.2L4.2,6.3C3.9,6,3.9,5.6,4,5.3c0.1-0.4,0.5-0.6,0.9-0.6h5.4
		c0.2,0,0.3,0.1,0.4,0.3l4.5,9.7l4-9.7c0.1-0.2,0.2-0.3,0.4-0.3H25c0.4,0,0.7,0.2,0.9,0.6s0,0.8-0.3,1L24,7.7V20l1.7,1.7
		c0.1,0.1,0.2,0.3,0.1,0.5C25.7,22.4,25.5,22.5,25.3,22.5z M18.9,21.6h5.2L23,20.5c0-0.1,0-0.2,0-0.3V7.5c0-0.1,0.1-0.3,0.2-0.4
		L25,5.6h-5L15.7,16c-0.1,0.2-0.2,0.3-0.4,0.3s-0.4-0.1-0.4-0.3L10,5.6H4.9l2,2C7,7.7,7,7.8,7,8v11.2c0,0.1,0,0.2-0.1,0.3l-1.4,2.1
		h3.9L8,19.5c0-0.1,0-0.2,0-0.3v-8.9c0-0.2,0.2-0.4,0.4-0.5c0.2,0,0.4,0.1,0.5,0.3L13,21.6h1.7l4.6-11.4c0.1-0.2,0.3-0.3,0.5-0.3
		s0.4,0.2,0.4,0.5v9.8c0,0.1-0.1,0.2-0.1,0.3L18.9,21.6z M4.7,25.8c-0.3,0-0.5-0.2-0.5-0.5v-0.9c0-0.3,0.2-0.5,0.5-0.5
		s0.5,0.2,0.5,0.5v0.9C5.1,25.6,4.9,25.8,4.7,25.8z M7,25.8c-0.3,0-0.5-0.2-0.5-0.5v-0.9c0-0.3,0.2-0.5,0.5-0.5s0.5,0.2,0.5,0.5v0.9
		C7.4,25.6,7.2,25.8,7,25.8z M9.2,25.8c-0.3,0-0.5-0.2-0.5-0.5v-0.9c0-0.3,0.2-0.5,0.5-0.5s0.5,0.2,0.5,0.5v0.9
		C9.7,25.6,9.5,25.8,9.2,25.8z M11.6,25.8c-0.3,0-0.5-0.2-0.5-0.5v-0.9c0-0.3,0.2-0.5,0.5-0.5s0.5,0.2,0.5,0.5v0.9
		C12,25.6,11.8,25.8,11.6,25.8z M13.9,25.8c-0.3,0-0.5-0.2-0.5-0.5v-0.9c0-0.3,0.2-0.5,0.5-0.5s0.5,0.2,0.5,0.5v0.9
		C14.3,25.6,14.1,25.8,13.9,25.8z M16.1,25.8c-0.3,0-0.5-0.2-0.5-0.5v-0.9c0-0.3,0.2-0.5,0.5-0.5c0.3,0,0.5,0.2,0.5,0.5v0.9
		C16.6,25.6,16.4,25.8,16.1,25.8z M18.4,25.8c-0.3,0-0.5-0.2-0.5-0.5v-0.9c0-0.3,0.2-0.5,0.5-0.5s0.5,0.2,0.5,0.5v0.9
		C18.9,25.6,18.7,25.8,18.4,25.8z M20.8,25.8c-0.3,0-0.5-0.2-0.5-0.5v-0.9c0-0.3,0.2-0.5,0.5-0.5s0.5,0.2,0.5,0.5v0.9
		C21.2,25.6,21,25.8,20.8,25.8z M23,25.8c-0.3,0-0.5-0.2-0.5-0.5v-0.9c0-0.3,0.2-0.5,0.5-0.5s0.5,0.2,0.5,0.5v0.9
		C23.5,25.6,23.3,25.8,23,25.8z M25.3,25.8c-0.3,0-0.5-0.2-0.5-0.5v-0.9c0-0.3,0.2-0.5,0.5-0.5s0.5,0.2,0.5,0.5v0.9
		C25.8,25.6,25.6,25.8,25.3,25.8z"/>
</g>
</svg>
